!! 00000] TT[WS
!!!OTL: Pa laopuo
!!!ARE: Asia, China,ÿShanxi Dingxiang
!! Ethnic Group: Han
!! WI, 220 (2)
!!!SCT: J0262
!!!YEM: Copyright 1995, estate of Helmut Schaffrath.
**kern
*ICvox
*Ivox
*M2/4
*k[f#]
*G:
{4dd
8b
8dd
=1
4dd
4b
=2
8dd
16dd
16b
8a
8dd
=3
8g
8e
4d}
=4
{8f#
4a
8b
=5
8dd
4a
8b
=6
8g
8f#
8e
8B
=7
2d}
==
!!!AGN: Xiaodiao. Qingge
!!!ONB: ESAC (Essen Associative Code) Database: CHINA
!!!AMT: simple duple
!!!AIN: vox
!!!EED: Helmut Schaffrath
!!!EEV: 1.0
*-
